X:4
C:Ewan McColl
K:D
M:4/4
L:1/8
(3DDD | G2 A2 (B4 | B6) GA | B3 G (D4 | D8) | B2 d2 (e4 | e6) dB | A3 G (B4 | B6) dd |
e2 d2 (B4 | B6) GA | B3 G (D4 | D8) | ED DG BG (A2 | A8) | AG AG ED (E2 | E6) :|
